PratyushDoodlesApp/static/images/ic_user.svg

<?xml version="1.0" encoding="UTF-8" standalone="no"?>
<!DOCTYPE svg PUBLIC "-//W3C//DTD SVG 1.1//EN" "http://www.w3.org/Graphics/SVG/1.1/DTD/svg11.dtd">
<!-- Created with Vectornator (http://vectornator.io/) -->
<svg height="100%" stroke-miterlimit="10" style="fill-rule:nonzero;clip-rule:evenodd;stroke-linecap:round;stroke-linejoin:round;" version="1.1" viewBox="585.759 0 85.05 85.05" width="100%" xml:space="preserve" xmlns="http://www.w3.org/2000/svg" xmlns:vectornator="http://vectornator.io" xmlns:xlink="http://www.w3.org/1999/xlink">
<defs/>
<clipPath id="ArtboardFrame">
<rect height="85.05" width="85.05" x="585.759" y="0"/>
</clipPath>
<g clip-path="url(#ArtboardFrame)" id="Layer" vectornator:layerName="Layer">
<g opacity="1" vectornator:layerName="Group 14">
<g opacity="1" vectornator:layerName="Group 1">
<path d="M585.759 0L670.809 0L670.809 85.05L585.759 85.05L585.759 0Z" fill="#ffffff" fill-rule="nonzero" opacity="1" stroke="none" vectornator:layerName="Rectangle 1"/>
<path d="M609.886 37.2852C606.235 33.9441 604.048 31.3945 602.698 30.2162C593.528 22.2134 594.884 4.11915 609.911 5.59261C617.938 6.37973 619.287 12.4256 620.621 18.4014C621.644 22.9875 622.658 27.5322 626.674 29.6268C636.126 34.5574 640.74 21.8249 648.779 22.2397C661.075 22.8743 646.159 31.9051 646.335 36.0316C646.502 39.9736 655.592 39.9399 654.79 44.5058C653.962 49.2142 644.008 47.4144 645.093 54.0409C645.808 58.4125 659.264 68.0428 653.427 73.766C651.531 75.6252 647.546 76.0494 645.053 76.3724C630.13 78.3052 638.967 59.4056 628.904 56.4902C620.283 53.9923 601.607 74.2761 596.307 68.1622C594.125 65.6448 593.925 57.1393 607.774 51.1725C609.963 50.2293 612.401 49.3599 613.37 46.8896C614.044 45.1727 615.611 42.525 609.886 37.2852Z" fill="#f1f1f1" fill-rule="nonzero" opacity="1" stroke="#f1f1f1" stroke-linecap="round" stroke-linejoin="round" stroke-width="2" vectornator:layerName="Curve 1"/>
</g>
<path d="M609.043 60.218C609.043 49.0186 616.037 39.9397 624.666 39.9397C633.294 39.9397 640.289 49.0186 640.289 60.218C640.289 61.1562 609.043 61.7854 609.043 60.218Z" fill="#0d262c" fill-rule="nonzero" opacity="1" stroke="none" vectornator:layerName="Oval 2"/>
<path d="M616.297 32.7207C616.297 27.837 620.044 23.878 624.666 23.878C629.288 23.878 633.034 27.837 633.034 32.7207C633.034 37.6044 629.288 41.5634 624.666 41.5634C620.044 41.5634 616.297 37.6044 616.297 32.7207Z" fill="#94481a" fill-rule="nonzero" opacity="1" stroke="none" vectornator:layerName="Oval 1"/>
</g>
</g>
</svg>

<svg stroke-miterlimit="10" style="fill-rule:nonzero;clip-rule:evenodd;stroke-linecap:round;stroke-linejoin:round" viewBox="585.759 0 85.05 85.05" xml:space="preserve" xmlns="http://www.w3.org/2000/svg" xmlns:vectornator="http://vectornator.io"><clipPath id="a"><path d="M585.759 0h85.05v85.05h-85.05z"/></clipPath><g vectornator:layerName="Layer"><g vectornator:layerName="Group 14" clip-path="url(#a)"><g vectornator:layerName="Group 1"><path d="M585.759 0h85.05v85.05h-85.05V0Z" fill="#fff" vectornator:layerName="Rectangle 1"/><path d="M609.886 37.285c-3.651-3.34-5.838-5.89-7.188-7.069-9.17-8.003-7.814-26.097 7.213-24.623 8.027.787 9.376 6.833 10.71 12.808 1.023 4.587 2.037 9.131 6.053 11.226 9.452 4.93 14.066-7.802 22.105-7.387 12.296.634-2.62 9.665-2.444 13.792.167 3.942 9.257 3.908 8.455 8.474-.828 4.708-10.782 2.908-9.697 9.535.715 4.372 14.171 14.002 8.334 19.725-1.896 1.86-5.881 2.283-8.374 2.606-14.923 1.933-6.086-16.966-16.149-19.882-8.621-2.498-27.297 17.786-32.597 11.672-2.182-2.517-2.382-11.023 11.467-16.99 2.189-.943 4.627-1.812 5.596-4.282.674-1.717 2.241-4.365-3.484-9.605Z" fill="#f1f1f1" stroke="#f1f1f1" stroke-width="2" vectornator:layerName="Curve 1"/></g><path d="M609.043 60.218c0-11.2 6.994-20.278 15.623-20.278 8.628 0 15.623 9.079 15.623 20.278 0 .938-31.246 1.567-31.246 0Z" fill="#0d262c" vectornator:layerName="Oval 2"/><path d="M616.297 32.72c0-4.883 3.747-8.842 8.369-8.842s8.368 3.959 8.368 8.843c0 4.883-3.746 8.842-8.368 8.842s-8.369-3.959-8.369-8.842Z" fill="#94481a" vectornator:layerName="Oval 1"/></g></g></svg>
